assets/sonr-icons/chart-pie.svg

<svg xmlns="http://www.w3.org/2000/svg" width="24" height="24" fill="none" viewBox="0 0 24 24"><path stroke="#000" stroke-linecap="round" stroke-linejoin="round" stroke-width="2" d="M19 13C19 17.4183 15.4183 21 11 21 6.58172 21 3 17.4183 3 13 3 8.58172 6.58172 5 11 5V10.6C11 11.4401 11 11.8601 11.1635 12.181 11.3073 12.4632 11.5368 12.6927 11.819 12.8365 12.1399 13 12.5599 13 13.4 13H19ZM20.7385 8.0983C20.0801 5.76147 18.239 3.92031 15.9022 3.26199 15.6333 3.18625 15.4989 3.14837 15.3623 3.1875 15.2514 3.21926 15.1353 3.30718 15.0747 3.40527 15 3.52611 15 3.68204 15 3.99392V8.20045C15 8.48048 15 8.62049 15.0545 8.72745 15.1024 8.82153 15.1789 8.89802 15.273 8.94596 15.38 9.00045 15.52 9.00045 15.8 9.00045H20.0065C20.3184 9.00045 20.4743 9.00045 20.5952 8.92577 20.6933 8.86513 20.7812 8.74902 20.813 8.63816 20.8521 8.5016 20.8142 8.36717 20.7385 8.0983Z"/></svg>

<svg xmlns="http://www.w3.org/2000/svg" width="24" height="24" fill="none"><path stroke="#000" stroke-linecap="round" stroke-linejoin="round" stroke-width="2" d="M19 13a8 8 0 1 1-8-8v5.6c0 .84 0 1.26.164 1.581a1.5 1.5 0 0 0 .655.656c.32.163.74.163 1.581.163zm1.738-4.902a7.01 7.01 0 0 0-4.836-4.836c-.269-.076-.403-.114-.54-.075a.54.54 0 0 0-.287.218C15 3.526 15 3.682 15 3.994V8.2c0 .28 0 .42.055.527a.5.5 0 0 0 .218.219C15.38 9 15.52 9 15.8 9h4.206c.312 0 .468 0 .59-.074a.54.54 0 0 0 .217-.288c.04-.136.001-.27-.075-.54"/></svg>
